X:757
T:Grandma Blair
T:Old Molly Hare
S:Marion Thede, The Fiddle Book
N:Very slightly changed (no double stops)
Z:Nigel Gatherer
M:4/4
L:1/8
K:G
d2 df e2 ed | c2 c2 d2 dB | GBBG B2 AG | FF F2 G2 G2 :|
BGBG  B2 AG | BG B2 A2 A2 | BGBG B2 AG | FF F2 G2 G2 :|
